svg/300/outlined/tap_and_play.svg

<svg xmlns="http://www.w3.org/2000/svg" width="48" height="48" viewBox="0 -960 960 960"><path d="M220.001-492.692v-349.614q0-23.529 17.082-40.611 17.082-17.082 40.611-17.082h404.612q23.529 0 40.611 17.082 17.082 17.082 17.082 40.611v736.921q0 18.51-13.438 31.946-13.437 13.437-31.946 13.437v-706.536h-429.23v273.846h-45.384Zm0 432.69V-182.69q51.538 0 87.114 35.576Q342.691-111.538 342.691-60h-122.69Zm195.768 0q0-81.922-56.922-138.845-56.923-56.922-138.846-56.922v-45.384q99.967 0 170.56 70.592 70.592 70.593 70.592 170.56h-45.384Zm118.462 0q0-131.153-91.434-222.691-91.433-91.538-222.796-91.538v-45.383q74.627 0 140.255 28.342 65.629 28.343 114.155 76.875 48.526 48.533 76.864 114.17 28.339 65.637 28.339 140.226h-45.383Zm-268.846-751.92h429.23v-30.384q0-4.616-3.846-8.463-3.847-3.846-8.463-3.846H277.694q-4.616 0-8.463 3.846-3.846 3.847-3.846 8.463v30.384Zm0 0v-42.693 42.693Z"/></svg>

<svg xmlns="http://www.w3.org/2000/svg" width="48" height="48" viewBox="0 -960 960 960"><path d="M220-492.69v-349.62q0-23.53 17.08-40.61T277.69-900h404.62q23.53 0 40.61 17.08T740-842.31v736.92q0 18.51-13.44 31.95Q713.12-60 694.61-60v-706.54H265.39v273.85H220ZM220-60v-122.69q51.54 0 87.12 35.57 35.57 35.58 35.57 87.12H220Zm195.77 0q0-81.92-56.92-138.85-56.93-56.92-138.85-56.92v-45.38q99.97 0 170.56 70.59T461.15-60h-45.38Zm118.46 0q0-131.15-91.43-222.69-91.44-91.54-222.8-91.54v-45.38q74.63 0 140.26 28.34 65.62 28.34 114.15 76.87 48.53 48.54 76.87 114.17Q579.61-134.59 579.61-60h-45.38ZM265.39-811.92h429.22v-30.39q0-4.61-3.84-8.46-3.85-3.84-8.46-3.84H277.69q-4.61 0-8.46 3.84-3.84 3.85-3.84 8.46v30.39Zm0 0v-42.69 42.69Z"/></svg>
